X: 32
T: Robertson's Reel (A)
R: Reel
M: 4/4
C: Tom Anderson
L: 1/8
R: Reel
F: http://www.thursdaycontra.com/~spuds/tunes/reels/Robertsons.abc 2004-11-08
K: A
AB \
| "A"c2 Bc e2 cB | "D"ABAF "E7"E2 AB | "A"c2Bc "F#m"ecAc | "Bm"B4- "E7"B2AB| "A"c2 Bc e2 cB | "D"ABAF "A/C#"E2 AB | 
"D"cBce  "E7"BABe |  "A"A6 :||: cd | "A"e2 ce a2 ga | "D"fecd "E7"e2 cd | "A"e2ce "A/C#"a2ga |
 "D"f4- "E7"f2ef| "F#m"a2 A2 "A/E"A2 cB | "D"ABAF "A/C#"E2 AB | "Bm"cBce "E7"BABc | "A"A6 :|

%%newpage
%%textfont * 14
%%begintext justify
%%32 Bar Reels
%%endtext
